lib/brands/icons/spotify.svg

<svg xmlns="http://www.w3.org/2000/svg" fill="none" aria-hidden="true" viewBox="0 0 48 48"><g id="spotify-Icon"><path id="Subtract" fill="#1ED760" fill-rule="evenodd" d="M24 44C35.0457 44 44 35.0457 44 24C44 12.9543 35.0457 4 24 4C12.9543 4 4 12.9543 4 24C4 35.0457 12.9543 44 24 44ZM31.4518 32.4015C32.0213 32.7268 32.7502 32.575 33.0919 32.0328C33.4336 31.4906 33.2514 30.7966 32.6819 30.4713C27.6704 27.5436 21.4288 26.8713 14.1621 28.4545C13.5243 28.5846 13.137 29.1918 13.2737 29.799C13.4104 30.4063 14.0482 30.775 14.686 30.6448C21.3377 29.2135 26.9642 29.799 31.4518 32.4015ZM33.3653 27.5653C34.0714 27.9557 34.9826 27.7605 35.4154 27.0882C35.8482 26.4159 35.6204 25.5484 34.9598 25.158C29.0599 21.7098 20.4493 20.7556 13.5243 22.7508C12.727 22.9677 12.2942 23.7484 12.522 24.5074C12.7498 25.2448 13.5698 25.6568 14.3671 25.44C20.4265 23.6833 28.2399 24.5508 33.3653 27.5653ZM13.456 19.8231C19.3331 18.1315 29.47 18.4568 35.6204 21.9267C36.4633 22.4255 37.5567 22.1436 38.0351 21.3195C38.5362 20.517 38.2629 19.4761 37.42 18.999C30.3584 15.0086 19.1508 14.6182 12.4081 16.57C11.4741 16.8519 10.9274 17.8062 11.2236 18.6953C11.5197 19.6062 12.522 20.105 13.456 19.8231Z" clip-rule="evenodd"/></g></svg>

<svg xmlns="http://www.w3.org/2000/svg" fill="none" aria-hidden="true" viewBox="0 0 48 48"><path fill="#1ED760" fill-rule="evenodd" d="M24 44c11.046 0 20-8.954 20-20S35.046 4 24 4 4 12.954 4 24s8.954 20 20 20Zm7.452-11.599c.57.326 1.298.174 1.64-.368.342-.542.16-1.236-.41-1.562-5.012-2.927-11.253-3.6-18.52-2.017a1.122 1.122 0 0 0-.888 1.345c.136.607.774.976 1.412.846 6.652-1.431 12.278-.846 16.766 1.756Zm1.913-4.836c.706.39 1.618.195 2.05-.477a1.373 1.373 0 0 0-.455-1.93c-5.9-3.448-14.51-4.402-21.436-2.407-.797.217-1.23.997-1.002 1.756.228.738 1.048 1.15 1.845.933 6.06-1.757 13.873-.89 18.998 2.125Zm-19.909-7.742c5.877-1.692 16.014-1.366 22.164 2.104.843.498 1.937.217 2.415-.607.501-.803.228-1.844-.615-2.321-7.062-3.99-18.27-4.38-25.012-2.429-.934.282-1.48 1.236-1.184 2.125.296.911 1.298 1.41 2.232 1.128Z" clip-rule="evenodd"/></svg>
